assets/images/mail.svg

<svg xmlns="http://www.w3.org/2000/svg" width="16" height="12"><path d="M13 0H3C1.3 0 0 1.3 0 3v6c0 1.7 1.3 3 3 3h10c1.7 0 3-1.3 3-3V3c0-1.7-1.3-3-3-3zm0 2c.1 0 .2 0 .3.1h-.1L8 5.9 2.8 2.1h-.1c.1-.1.2-.1.3-.1h10zm1 7c0 .6-.4 1-1 1H3c-.6 0-1-.4-1-1V2.8c0 .1.1.1.2.1l5.5 4c.1.1.2.1.3.1.1 0 .2 0 .3-.1l5.5-4c.1 0 .1-.1.1-.2.1.1.1.2.1.3v6z"/></svg>

<svg xmlns="http://www.w3.org/2000/svg" width="16" height="12" viewBox="0 0 16 12" id="mail">
  <path d="M13,0 L3,0 C1.3,0 0,1.3 0,3 L0,9 C0,10.7 1.3,12 3,12 L13,12 C14.7,12 16,10.7 16,9 L16,3 C16,1.3 14.7,0 13,0 Z M13,2 C13.1,2 13.2,2 13.3,2.1 L13.2,2.1 L8,5.9 L2.8,2.1 L2.7,2.1 C2.8,2 2.9,2 3,2 L13,2 Z M14,9 C14,9.6 13.6,10 13,10 L3,10 C2.4,10 2,9.6 2,9 L2,2.8 C2,2.9 2.1,2.9 2.2,2.9 L7.7,6.9 C7.8,7 7.9,7 8,7 C8.1,7 8.2,7 8.3,6.9 L13.8,2.9 C13.9,2.9 13.9,2.8 13.9,2.7 C14,2.8 14,2.9 14,3 L14,9 Z"/>
</svg>
